icons/neuro_surgery_fill.svg

<svg width="48" height="48" viewBox="0 0 48 48" fill="none" xmlns="http://www.w3.org/2000/svg">
<path fill-rule="evenodd" clip-rule="evenodd" d="M24 10.75C24 9.8378 24.1277 8.9543 24.3672 8.11349C28.2905 13.8819 30.9132 17.1832 37.893 20.6419C36.9723 20.8752 36.0026 21 35 21C28.8631 21 24 16.3511 24 10.75ZM22 10.75C22 9.45129 22.2148 8.1986 22.6128 7.02283C20.0425 7.14269 17.5175 7.73417 15.1776 8.76792C13.0948 9.60283 11.2713 10.9315 9.88073 12.6274C8.61091 14.4088 7.90711 16.5008 7.85353 18.653C7.84198 19.1476 7.84891 19.6168 7.85561 20.0705C7.87928 21.6725 7.90013 23.0833 7.09496 24.7521C7.09496 24.7521 4.71463 26.8934 5.02852 28.6115C5.34241 30.3296 8.44207 30.8027 8.44207 30.8027C8.44207 37.7444 15.071 37.3025 18.3796 36.6496C18.4465 36.6364 18.5121 36.6231 18.5762 36.6098C19.5663 36.4041 20.2129 36.192 20.2129 36.192V37.4965C20.2129 37.4965 20.2818 37.7151 20.4944 38.0227C20.5509 38.1044 20.6175 38.1925 20.6957 38.2843C21.3164 39.0138 22.6652 39.9865 25.4444 39.9865C27.5383 40.1523 31.1221 38.7817 32.0722 36.8491V30.9382C34.8855 28.8355 37.1563 26.1195 37.8099 22.713C36.9042 22.901 35.9639 23 35 23C27.8821 23 22 17.5753 22 10.75ZM40.1324 37V30C40.1324 28.8954 41.0278 28 42.1324 28C43.237 28 44.1505 28.9023 43.9793 29.9936C43.2464 34.6645 40.1324 37 40.1324 37ZM41.6324 27C42.4608 27 43.1324 26.3284 43.1324 25.5V23.4142L40.3199 26.2267C40.5758 26.6879 41.0676 27 41.6324 27ZM40.1324 21.4142V23.5858L43.1324 20.5858V18.4142L40.1324 21.4142ZM40.1324 11.5V18.5858L43.1324 15.5858V11.5C43.1324 10.6716 42.4608 10 41.6324 10C40.804 10 40.1324 10.6716 40.1324 11.5Z" fill="black"/>
</svg>

<svg
  xmlns="http://www.w3.org/2000/svg"
  width="24"
  height="24"
  viewBox="0 0 24 24"
  fill="none"
  stroke="currentColor"
  stroke-width="2"
  stroke-linecap="round"
  stroke-linejoin="round"
>
  <path
    fill-rule="evenodd"
    d="M24 10.75c0-.912.128-1.796.367-2.637 3.924 5.769 6.546 9.07 13.526 12.529-.92.233-1.89.358-2.893.358-6.137 0-11-4.649-11-10.25m-2 0a11.6 11.6 0 0 1 .613-3.727c-2.57.12-5.096.711-7.435 1.745a13.2 13.2 0 0 0-5.297 3.86 10.84 10.84 0 0 0-2.027 6.025c-.012.495-.005.964.002 1.418.023 1.601.044 3.012-.761 4.681 0 0-2.38 2.141-2.066 3.86.313 1.718 3.413 2.19 3.413 2.19 0 6.942 6.629 6.5 9.938 5.848l.196-.04c.99-.206 1.637-.418 1.637-.418v1.304s.069.22.281.527q.084.123.202.261c.62.73 1.97 1.703 4.748 1.703 2.094.165 5.678-1.205 6.628-3.138v-5.91c2.813-2.104 5.084-4.82 5.738-8.226-.906.188-1.846.287-2.81.287-7.118 0-13-5.425-13-12.25M40.132 37v-7a2 2 0 0 1 2-2c1.105 0 2.019.902 1.847 1.994-.733 4.67-3.847 7.006-3.847 7.006m1.5-10a1.5 1.5 0 0 0 1.5-1.5v-2.086l-2.812 2.813a1.5 1.5 0 0 0 1.312.773m-1.5-5.586v2.172l3-3v-2.172zm0-9.914v7.086l3-3V11.5a1.5 1.5 0 0 0-3 0"
    clip-rule="evenodd"
  />
</svg>
